content/img/enterprise/check.svg

<svg width="13" height="10" viewBox="0 0 13 10" fill="none" xmlns="http://www.w3.org/2000/svg">
  <path d="M12.9313 1.17041L11.8688 0.0727712C11.8265 0.0242569 11.7601 0 11.6998 0C11.6333 0 11.573 0.0242569 11.5307 0.0727712L4.16555 7.52577L1.48511 4.83323C1.43681 4.78472 1.37644 4.76046 1.31607 4.76046C1.2557 4.76046 1.19533 4.78472 1.14703 4.83323L0.0724443 5.91267C-0.0241481 6.0097 -0.0241481 6.16131 0.0724443 6.25834L3.45318 9.65434C3.67051 9.87265 3.93614 10 4.15951 10C4.47947 10 4.75717 9.76349 4.8598 9.66646H4.86584L12.9373 1.51607C13.0219 1.41298 13.0219 1.26137 12.9313 1.17041Z" fill="#1A232F"/>
</svg>

<svg width="13" height="10" viewBox="0 0 13 10" fill="none" xmlns="http://www.w3.org/2000/svg"><path d="M12.931 1.17L11.87.073A.228.228 0 0011.7 0a.219.219 0 00-.168.073L4.166 7.526l-2.68-2.693a.238.238 0 00-.17-.073c-.06 0-.12.025-.169.073L.072 5.913a.242.242 0 000 .345l3.381 3.396c.218.219.483.346.707.346.32 0 .597-.237.7-.334h.006l8.071-8.15c.085-.103.085-.255-.006-.346z" fill="#1A232F"/></svg>
